assets/img/braze_icons/server-04.svg

<svg fill="none" height="24" viewBox="0 0 24 24" width="24" xmlns="http://www.w3.org/2000/svg"><g fill="#801ed7"><path d="m7.19903 1.5h9.60187c.7175-.00001 1.3127-.00002 1.8015.03773.5098.03937.9796.12382 1.431.33299.7049.32663 1.2994.85144 1.7109 1.51034.2635.42197.4056.87763.5079 1.37869.0793.38807-.3822.66687-.7328.48262-.9022-.4741-1.9295-.74237-3.0194-.74237h-13c-1.08994 0-2.11723.26827-3.01943.74238-.35062.18425-.81206-.09455-.73282-.48263.10231-.50106.24438-.95672.50793-1.37869.41153-.6589 1.00602-1.18371 1.71088-1.51034.4514-.20917.92116-.29362 1.43104-.33299.48876-.03775 1.08393-.03774 1.80143-.03773z"/><path clip-rule="evenodd" d="m1.01264 10.6602c-.00838.1122-.01264.2255-.01264.3398 0 1.4136.65183 2.675 1.67134 3.5-1.01951.825-1.67134 2.0864-1.67134 3.5 0 2.4853 2.01472 4.5 4.5 4.5h13c2.4853 0 4.5-2.0147 4.5-4.5 0-1.4136-.6518-2.675-1.6713-3.5 1.0195-.825 1.6713-2.0864 1.6713-3.5 0-.1144-.0043-.2277-.0126-.3399-.1738-2.32653-2.1165-4.1601-4.4874-4.1601h-13c-2.37097 0-4.31367 1.83365-4.48736 4.1602zm9.98736.3398c0-.5523.4477-1 1-1h6c.5523 0 1 .4477 1 1s-.4477 1-1 1h-6c-.5523 0-1-.4477-1-1zm0 7c0-.5523.4477-1 1-1h6c.5523 0 1 .4477 1 1s-.4477 1-1 1h-6c-.5523 0-1-.4477-1-1zm-5-8.25c-.69036 0-1.25.5596-1.25 1.25s.55964 1.25 1.25 1.25 1.25-.5596 1.25-1.25-.55964-1.25-1.25-1.25zm-1.25 8.25c0-.6904.55964-1.25 1.25-1.25s1.25.5596 1.25 1.25-.55964 1.25-1.25 1.25-1.25-.5596-1.25-1.25z" fill-rule="evenodd"/></g></svg>

<svg width="24" height="24" viewBox="0 0 24 24" fill="none" xmlns="http://www.w3.org/2000/svg">
<path d="M7.19903 1.5H16.8009C17.5184 1.49999 18.1136 1.49998 18.6024 1.53773C19.1122 1.5771 19.582 1.66155 20.0334 1.87072C20.7383 2.19735 21.3328 2.72216 21.7443 3.38106C22.0078 3.80303 22.1499 4.25869 22.2522 4.75975C22.3315 5.14782 21.87 5.42662 21.5194 5.24237C20.6172 4.76827 19.5899 4.5 18.5 4.5H5.5C4.41006 4.5 3.38277 4.76827 2.48057 5.24238C2.12995 5.42663 1.66851 5.14783 1.74775 4.75975C1.85006 4.25869 1.99213 3.80303 2.25568 3.38106C2.66721 2.72216 3.2617 2.19735 3.96656 1.87072C4.41796 1.66155 4.88772 1.5771 5.3976 1.53773C5.88636 1.49998 6.48153 1.49999 7.19903 1.5Z" fill="#801ED7"/>
<path fill-rule="evenodd" clip-rule="evenodd" d="M1.01264 10.6602C1.00426 10.7724 1 10.8857 1 11C1 12.4136 1.65183 13.675 2.67134 14.5C1.65183 15.325 1 16.5864 1 18C1 20.4853 3.01472 22.5 5.5 22.5H18.5C20.9853 22.5 23 20.4853 23 18C23 16.5864 22.3482 15.325 21.3287 14.5C22.3482 13.675 23 12.4136 23 11C23 10.8856 22.9957 10.7723 22.9874 10.6601C22.8136 8.33357 20.8709 6.5 18.5 6.5H5.5C3.12903 6.5 1.18633 8.33365 1.01264 10.6602ZM11 11C11 10.4477 11.4477 10 12 10H18C18.5523 10 19 10.4477 19 11C19 11.5523 18.5523 12 18 12H12C11.4477 12 11 11.5523 11 11ZM11 18C11 17.4477 11.4477 17 12 17H18C18.5523 17 19 17.4477 19 18C19 18.5523 18.5523 19 18 19H12C11.4477 19 11 18.5523 11 18ZM6 9.75C5.30964 9.75 4.75 10.3096 4.75 11C4.75 11.6904 5.30964 12.25 6 12.25C6.69036 12.25 7.25 11.6904 7.25 11C7.25 10.3096 6.69036 9.75 6 9.75ZM4.75 18C4.75 17.3096 5.30964 16.75 6 16.75C6.69036 16.75 7.25 17.3096 7.25 18C7.25 18.6904 6.69036 19.25 6 19.25C5.30964 19.25 4.75 18.6904 4.75 18Z" fill="#801ED7"/>
</svg>
